static/img/kroki/b9286987fd51b372cbeab767674f5ad7.svg

<?xml version="1.0" encoding="us-ascii" standalone="no"?><svg xmlns="http://www.w3.org/2000/svg" xmlns:xlink="http://www.w3.org/1999/xlink" contentStyleType="text/css" height="152px" preserveAspectRatio="none" style="width:441px;height:152px;" version="1.1" viewBox="0 0 441 152" width="441px" zoomAndPan="magnify"><defs/><g><!--class gcp_backend_service--><g id="elem_gcp_backend_service"><rect codeLine="22" fill="#3D176E" height="39.7891" id="gcp_backend_service" rx="2.5" ry="2.5" style="stroke:#000D19;stroke-width:0.5;" width="215" x="7" y="106.79"/><ellipse cx="22" cy="126.6845" fill="#ADD1B2" rx="11" ry="11" style="stroke:#181818;stroke-width:1.0;"/><path d="M24.9688,132.3252 Q24.3906,132.622 23.75,132.7627 Q23.1094,132.9189 22.4063,132.9189 Q19.9063,132.9189 18.5781,131.2783 Q17.2656,129.622 17.2656,126.497 Q17.2656,123.372 18.5781,121.7158 Q19.9063,120.0595 22.4063,120.0595 Q23.1094,120.0595 23.75,120.2158 Q24.4063,120.372 24.9688,120.6689 L24.9688,123.3877 Q24.3438,122.8095 23.75,122.5439 Q23.1563,122.2627 22.5313,122.2627 Q21.1875,122.2627 20.5,123.3408 Q19.8125,124.4033 19.8125,126.497 Q19.8125,128.5908 20.5,129.6689 Q21.1875,130.7314 22.5313,130.7314 Q23.1563,130.7314 23.75,130.4658 Q24.3438,130.1845 24.9688,129.6064 L24.9688,132.3252 Z " fill="#000000"/><text fill="#D9B8FF" font-family="Helvetica" font-size="17" lengthAdjust="spacing" textLength="173" x="41" y="132.5698">gcp_backend_service</text></g><!--class gcp_service_attachment--><g id="elem_gcp_service_attachment"><rect codeLine="24" fill="#3D176E" height="39.7891" id="gcp_service_attachment" rx="2.5" ry="2.5" style="stroke:#000D19;stroke-width:0.5;" width="244" x="107.5" y="7"/><ellipse cx="122.5" cy="26.8945" fill="#ADD1B2" rx="11" ry="11" style="stroke:#181818;stroke-width:1.0;"/><path d="M125.4688,32.5352 Q124.8906,32.832 124.25,32.9727 Q123.6094,33.1289 122.9063,33.1289 Q120.4063,33.1289 119.0781,31.4883 Q117.7656,29.832 117.7656,26.707 Q117.7656,23.582 119.0781,21.9258 Q120.4063,20.2695 122.9063,20.2695 Q123.6094,20.2695 124.25,20.4258 Q124.9063,20.582 125.4688,20.8789 L125.4688,23.5977 Q124.8438,23.0195 124.25,22.7539 Q123.6563,22.4727 123.0313,22.4727 Q121.6875,22.4727 121,23.5508 Q120.3125,24.6133 120.3125,26.707 Q120.3125,28.8008 121,29.8789 Q121.6875,30.9414 123.0313,30.9414 Q123.6563,30.9414 124.25,30.6758 Q124.8438,30.3945 125.4688,29.8164 L125.4688,32.5352 Z " fill="#000000"/><text fill="#D9B8FF" font-family="Helvetica" font-size="17" lengthAdjust="spacing" textLength="202" x="141.5" y="32.7798">gcp_service_attachment</text></g><!--class gcp_subnetwork--><g id="elem_gcp_subnetwork"><rect codeLine="26" fill="#3D176E" height="39.7891" id="gcp_subnetwork" rx="2.5" ry="2.5" style="stroke:#000D19;stroke-width:0.5;" width="178" x="256.5" y="106.79"/><ellipse cx="271.5" cy="126.6845" fill="#ADD1B2" rx="11" ry="11" style="stroke:#181818;stroke-width:1.0;"/><path d="M274.4688,132.3252 Q273.8906,132.622 273.25,132.7627 Q272.6094,132.9189 271.9063,132.9189 Q269.4063,132.9189 268.0781,131.2783 Q266.7656,129.622 266.7656,126.497 Q266.7656,123.372 268.0781,121.7158 Q269.4063,120.0595 271.9063,120.0595 Q272.6094,120.0595 273.25,120.2158 Q273.9063,120.372 274.4688,120.6689 L274.4688,123.3877 Q273.8438,122.8095 273.25,122.5439 Q272.6563,122.2627 272.0313,122.2627 Q270.6875,122.2627 270,123.3408 Q269.3125,124.4033 269.3125,126.497 Q269.3125,128.5908 270,129.6689 Q270.6875,130.7314 272.0313,130.7314 Q272.6563,130.7314 273.25,130.4658 Q273.8438,130.1845 274.4688,129.6064 L274.4688,132.3252 Z " fill="#000000"/><text fill="#D9B8FF" font-family="Helvetica" font-size="17" lengthAdjust="spacing" textLength="136" x="290.5" y="132.5698">gcp_subnetwork</text></g><!--link gcp_service_attachment to gcp_backend_service--><g id="link_gcp_service_attachment_gcp_backend_service"><path codeLine="28" d="M206.78,47.22 C186.62,64.36 161.8902,85.3825 141.7402,102.5225 " fill="none" id="gcp_service_attachment-to-gcp_backend_service" style="stroke:#1A83AF;stroke-width:2.0;"/><polygon fill="#1A83AF" points="137.17,106.41,146.617,103.6255,140.9785,103.1704,141.4337,97.5319,137.17,106.41" style="stroke:#1A83AF;stroke-width:2.0;"/></g><!--link gcp_service_attachment to gcp_subnetwork--><g id="link_gcp_service_attachment_gcp_subnetwork"><path codeLine="29" d="M252.42,47.22 C272.75,64.36 297.7237,85.4014 318.0437,102.5414 " fill="none" id="gcp_service_attachment-to-gcp_subnetwork" style="stroke:#1A83AF;stroke-width:2.0;"/><polygon fill="#1A83AF" points="322.63,106.41,318.3296,97.5496,318.8081,103.1862,313.1715,103.6647,322.63,106.41" style="stroke:#1A83AF;stroke-width:2.0;"/></g><!--SRC=[ZP9DIyD048Rl_HKBFHSIYxQz2B5Gz5B4UXCfaztPPaco6sOdBLNyx_PBtIRzy3hlC_E-Cqnc50eiArwB4iiKoNTyRcm51AL8YDngx0f7egirwFwWAKwSvQl054eKZrWiaOs49l6Q6PbRz5xS1D83o7n1hhPgFvu9hDz8Q3cWnWLudp2JIMl688mQfKEjcsHpQBUlui4TjZ172kc0H56aub4JkMfrSUzVOcO-KCJXqQQEiHMpPR6ZBgRS4a78rg8_-jcCpw2KiGjn6zHUzfd88XtLPnaejzhI6WeVsdX6GiVh2iUjhN0qL7fm4duw1yljvSH2LlDqGw1LSu-qD1B5P-ShK0_LEJ23pChDrpI1EhN8AqVvJZZJqtlhnicmdqpUU_UdNF_TzsVt3G00]--></g></svg>

<svg xmlns="http://www.w3.org/2000/svg" width="441" height="152" viewBox="0 0 441 152"><rect width="215" height="39.789" x="7" y="106.79" fill="#3D176E" rx="2.5" ry="2.5" style="stroke:#000d19;stroke-width:.5"/><circle cx="22" cy="126.684" r="11" fill="#ADD1B2" style="stroke:#181818;stroke-width:1"/><path d="M24.969 132.325q-.578.297-1.219.438-.64.156-1.344.156-2.5 0-3.828-1.64-1.312-1.657-1.312-4.782t1.312-4.781q1.328-1.656 3.828-1.656.703 0 1.344.156.656.156 1.219.453v2.719q-.625-.579-1.219-.844-.594-.281-1.219-.281-1.343 0-2.031 1.078-.687 1.062-.687 3.156t.687 3.172q.688 1.062 2.031 1.062.625 0 1.219-.265.594-.281 1.219-.86z"/><text x="41" y="132.57" fill="#D9B8FF" font-family="Helvetica" font-size="17" textLength="173">gcp_backend_service</text><rect width="244" height="39.789" x="107.5" y="7" fill="#3D176E" rx="2.5" ry="2.5" style="stroke:#000d19;stroke-width:.5"/><circle cx="122.5" cy="26.895" r="11" fill="#ADD1B2" style="stroke:#181818;stroke-width:1"/><path d="M125.469 32.535q-.578.297-1.219.438-.64.156-1.344.156-2.5 0-3.828-1.64-1.312-1.657-1.312-4.782t1.312-4.781q1.328-1.656 3.828-1.656.703 0 1.344.156.656.156 1.219.453v2.719q-.625-.578-1.219-.844-.594-.281-1.219-.281-1.344 0-2.031 1.078-.687 1.062-.687 3.156t.687 3.172q.688 1.062 2.031 1.062.625 0 1.219-.265.594-.281 1.219-.86z"/><text x="141.5" y="32.78" fill="#D9B8FF" font-family="Helvetica" font-size="17" textLength="202">gcp_service_attachment</text><rect width="178" height="39.789" x="256.5" y="106.79" fill="#3D176E" rx="2.5" ry="2.5" style="stroke:#000d19;stroke-width:.5"/><circle cx="271.5" cy="126.684" r="11" fill="#ADD1B2" style="stroke:#181818;stroke-width:1"/><path d="M274.469 132.325q-.578.297-1.219.438-.64.156-1.344.156-2.5 0-3.828-1.64-1.312-1.657-1.312-4.782t1.312-4.781q1.328-1.656 3.828-1.656.703 0 1.344.156.656.156 1.219.453v2.719q-.625-.579-1.219-.844-.594-.281-1.219-.281-1.344 0-2.031 1.078-.687 1.062-.687 3.156t.687 3.172q.688 1.062 2.031 1.062.625 0 1.219-.265.594-.281 1.219-.86z"/><text x="290.5" y="132.57" fill="#D9B8FF" font-family="Helvetica" font-size="17" textLength="136">gcp_subnetwork</text><path fill="none" d="M206.78 47.22c-20.16 17.14-44.89 38.162-65.04 55.302" style="stroke:#1a83af;stroke-width:2"/><path fill="#1A83AF" d="m137.17 106.41 9.447-2.784-5.638-.456.455-5.638z" style="stroke:#1a83af;stroke-width:2"/><path fill="none" d="M252.42 47.22c20.33 17.14 45.304 38.181 65.624 55.321" style="stroke:#1a83af;stroke-width:2"/><path fill="#1A83AF" d="m322.63 106.41-4.3-8.86.478 5.636-5.637.479z" style="stroke:#1a83af;stroke-width:2"/></svg>
